;FLAVOR:UltiGCode
;TIME:8608
;MATERIAL:25967
;MATERIAL2:0
;NOZZLE_DIAMETER:0.6
;MINX:70.195
;MINY:97.235
;MINZ:0.4
;MAXX:156.725
;MAXY:174.265
;MAXZ:54.2
;Generated with Cura_SteamEngine 4.1.0
M82 ;absolute extrusion mode

G92 E0
G92 E0
G10
;LAYER_COUNT:270
;LAYER:0
M107
G0 F3630 X71.581 Y125.346 Z0.4
;TYPE:SKIRT
G11
G1 F1980 X72.201 Y125.001 E0.15042
G1 X72.852 Y124.726 E0.30024
G1 X75.404 Y123.615 E0.89031
G1 X77.893 Y122.445 E1.47337
G1 X80.327 Y121.217 E2.05133
G1 X82.706 Y119.931 E2.62465
G1 X85.118 Y118.538 E3.21514
G1 X87.401 Y117.13 E3.78378
G1 X89.72 Y115.61 E4.37161
G1 X91.954 Y114.052 E4.94902
G1 X94.149 Y112.428 E5.52787
G1 X96.324 Y110.721 E6.11402
G1 X98.401 Y108.995 E6.68654
G1 X100.49 Y107.154 E7.27685
G1 X102.465 Y105.314 E7.8491
G1 X104.39 Y103.416 E8.42221
G1 X106.315 Y101.407 E9.01207
G1 X108.197 Y99.328 E9.60659
G1 X109.056 Y98.352 E9.88222
G1 X109.423 Y97.996 E9.99062
G1 X109.84 Y97.702 E10.09879
G1 X110.298 Y97.476 E10.20706
G1 X110.786 Y97.325 E10.31536
G1 X111.416 Y97.245 E10.44999
G1 X111.739 Y97.236 E10.51849
G1 X111.83 Y97.235 E10.53778
G1 X130.84 Y97.235 E14.5679
G1 X131.538 Y97.245 E14.71589
G1 X132.046 Y97.293 E14.82407
G1 X132.541 Y97.419 E14.93236
G1 X133.01 Y97.62 E15.04053
G1 X133.442 Y97.892 E15.14876
G1 X133.827 Y98.229 E15.25723
G1 X134.154 Y98.621 E15.36545
G1 X134.338 Y98.911 E15.43826
G1 X134.99 Y100.072 E15.72055
G1 X136.368 Y102.455 E16.30413
G1 X137.788 Y104.758 E16.87772
G1 X139.302 Y107.067 E17.46307
G1 X140.873 Y109.317 E18.04484
G1 X142.486 Y111.495 E18.61941
G1 X144.178 Y113.651 E19.20043
G1 X145.934 Y115.761 E19.78239
G1 X147.747 Y117.82 E20.364
G1 X149.585 Y119.791 E20.93534
G1 X151.52 Y121.751 E21.51924
G1 X153.511 Y123.66 E22.10401
G1 X155.582 Y125.533 E22.69598
G1 X155.609 Y125.557 E22.70364
G1 X155.964 Y125.923 E22.81174
G1 X156.258 Y126.341 E22.92008
G1 X156.484 Y126.799 E23.02835
G1 X156.635 Y127.287 E23.13665
G1 X156.713 Y127.905 E23.2687
G1 X156.723 Y128.229 E23.33742
G1 X156.725 Y128.33 E23.35884
G1 X156.725 Y164.59 E31.04596
G1 X156.715 Y165.288 E31.19395
G1 X156.667 Y165.796 E31.30212
G1 X156.541 Y166.291 E31.41041
G1 X156.34 Y166.76 E31.51859
G1 X156.068 Y167.192 E31.62681
G1 X155.872 Y167.43 E31.69217
G1 X155.731 Y167.586 E31.73675
G1 X155.643 Y167.68 E31.76405
G1 X155.462 Y167.865 E31.81892
G1 X155.437 Y167.891 E31.82657
G1 X150.508 Y172.82 E33.30435
G1 X150.476 Y172.851 E33.31379
G1 X149.992 Y173.322 E33.45697
G1 X149.599 Y173.648 E33.56522
G1 X149.161 Y173.91 E33.67342
G1 X148.686 Y174.099 E33.7818
G1 X148.188 Y174.213 E33.8901
G1 X147.819 Y174.245 E33.96862
G1 X147.252 Y174.263 E34.08889
G1 X147.148 Y174.265 E34.11094
G1 X79.87 Y174.265 E48.37388
G1 X79.172 Y174.255 E48.52187
G1 X78.664 Y174.207 E48.63004
G1 X78.169 Y174.081 E48.73833
G1 X77.7 Y173.88 E48.8465
G1 X77.268 Y173.608 E48.95473
G1 X77.03 Y173.412 E49.02009
G1 X76.874 Y173.271 E49.06467
G1 X76.778 Y173.182 E49.09242
G1 X76.583 Y172.991 E49.15029
G1 X71.632 Y168.04 E50.63467
G1 X71.601 Y168.008 E50.64411
G1 X71.132 Y167.526 E50.78669
G1 X70.806 Y167.133 E50.89494
G1 X70.544 Y166.694 E51.00332
G1 X70.355 Y166.22 E51.1115
G1 X70.241 Y165.722 E51.21981
G1 X70.208 Y165.319 E51.30553
G1 X70.196 Y164.758 E51.42449
G1 X70.195 Y164.688 E51.43933
G1 X70.195 Y128.651 E59.07917
G1 X70.205 Y127.962 E59.22526
G1 X70.253 Y127.453 E59.33365
G1 X70.379 Y126.958 E59.44193
G1 X70.58 Y126.489 E59.55011
G1 X70.853 Y126.057 E59.65844
G1 X71.189 Y125.673 E59.76662
G1 X71.581 Y125.346 E59.87484
G10
;MESH:????33.044.703 - ???????????? ?????????????????????? ?????????????? ?????? Y.stl
G0 F3630 X90.691 Y117.691
G0 X110.691 Y117.691
G0 X112.309 Y119.309
G0 X115.175 Y106.175
;TYPE:WALL-INNER
G11
G1 F1980 X115.175 Y121.175 E63.05484
G1 X92.825 Y121.175 E67.79304
G1 X92.825 Y119.825 E68.07924
G1 X112.825 Y119.825 E72.31924
G1 X112.825 Y101.825 E76.13524
G1 X130.175 Y101.825 E79.81344
G1 X130.175 Y106.175 E80.73564
G1 X115.175 Y106.175 E83.91564
G0 F3630 X115.705 Y106.705
G1 F1980 X115.705 Y121.705 E87.09564
G1 X92.295 Y121.705 E92.05856
G1 X92.295 Y119.295 E92.56948
G1 X112.295 Y119.295 E96.80948
G1 X112.295 Y101.295 E100.62548
G1 X130.705 Y101.295 E104.5284
G1 X130.705 Y106.705 E105.67532
G1 X115.705 Y106.705 E108.85532
G0 F3630 X116.2 Y107.2
;TYPE:WALL-OUTER
G1 F1980 X116.2 Y122.2 E112.03532
G1 X91.8 Y122.2 E117.20812
G1 X91.8 Y118.8 E117.92892
G1 X111.8 Y118.8 E122.16892
G1 X111.8 Y100.8 E125.98492
G1 X131.2 Y100.8 E130.09772
G1 X131.2 Y107.2 E131.45452
G1 X116.2 Y107.2 E134.63452
G0 F3630 X116.2 Y107.5
G0 X115.605 Y107.5
G0 X114.655 Y105.655
;TYPE:SKIN
G1 F1980 X114.655 Y120.655 E137.81452
G1 X93.345 Y120.655 E142.33224
G1 X93.345 Y120.345 E142.39796
G1 X113.345 Y120.345 E146.63796
G1 X113.345 Y102.345 E150.45396
G1 X129.655 Y102.345 E153.91168
G1 X129.655 Y105.655 E154.6134
G1 X114.655 Y105.655 E157.7934
G0 F3630 X113.67 Y120.416
G1 F1980 X113.582 Y120.328 E157.81978
G0 F3630 X113.582 Y119.578
G1 F1980 X114.416 Y120.413 E158.06998
G0 F3630 X114.416 Y119.663
G1 F1980 X113.582 Y118.829 E158.32002
G0 F3630 X113.582 Y118.079
G1 F1980 X114.416 Y118.914 E158.57022
G0 F3630 X114.416 Y118.164
G1 F1980 X113.582 Y117.33 E158.82026
G0 F3630 X113.582 Y116.58
G1 F1980 X114.416 Y117.415 E159.07045
G0 F3630 X114.416 Y116.665
G1 F1980 X113.582 Y115.831 E159.3205
G0 F3630 X113.582 Y115.081
G1 F1980 X114.416 Y115.916 E159.57069
G0 F3630 X114.416 Y115.166
G1 F1980 X113.582 Y114.332 E159.82074
G0 F3630 X113.582 Y113.582
G1 F1980 X114.416 Y114.416 E160.07078
G0 F3630 X114.416 Y113.667
G1 F1980 X113.582 Y112.833 E160.32083
G0 F3630 X113.582 Y112.083
G1 F1980 X114.416 Y112.917 E160.57087
G0 F3630 X114.416 Y112.168
G1 F1980 X113.582 Y111.333 E160.82106
G0 F3630 X113.582 Y110.584
G1 F1980 X114.416 Y111.418 E161.07111
G0 F3630 X114.416 Y110.669
G1 F1980 X113.582 Y109.834 E161.3213
G0 F3630 X113.582 Y109.085
G1 F1980 X114.416 Y109.919 E161.57135
G0 F3630 X114.416 Y109.17
G1 F1980 X113.582 Y108.335 E161.82154
G0 F3630 X113.582 Y107.586
G1 F1980 X114.416 Y108.42 E162.07159
G0 F3630 X114.416 Y107.671
G1 F1980 X113.582 Y106.836 E162.32178
G0 F3630 X113.582 Y106.087
G1 F1980 X114.416 Y106.921 E162.57182
G0 F3630 X114.416 Y106.172
G1 F1980 X113.582 Y105.337 E162.82202
G0 F3630 X113.582 Y104.588
G1 F1980 X114.416 Y105.422 E163.07206
G0 F3630 X115.16 Y105.416
G1 F1980 X113.582 Y103.838 E163.54517
G0 F3630 X113.582 Y103.089
G1 F1980 X115.91 Y105.416 E164.24298
G0 F3630 X116.659 Y105.416
G1 F1980 X113.825 Y102.582 E165.09265
G0 F3630 X114.575 Y102.582
G1 F1980 X117.409 Y105.416 E165.94232
G0 F3630 X118.158 Y105.416
G1 F1980 X115.324 Y102.582 E166.792
G0 F3630 X116.074 Y102.582
G1 F1980 X118.908 Y105.416 E167.64167
G0 F3630 X119.658 Y105.416
G1 F1980 X116.823 Y102.582 E168.49149
G0 F3630 X117.573 Y102.582
G1 F1980 X120.407 Y105.416 E169.34116
G0 F3630 X121.157 Y105.416
G1 F1980 X118.323 Y102.582 E170.19083
G0 F3630 X119.072 Y102.582
G1 F1980 X121.906 Y105.416 E171.0405
G0 F3630 X122.656 Y105.416
G1 F1980 X119.822 Y102.582 E171.89017
G0 F3630 X120.571 Y102.582
G1 F1980 X123.405 Y105.416 E172.73984
G0 F3630 X124.155 Y105.416
G1 F1980 X121.321 Y102.582 E173.58951
G0 F3630 X122.07 Y102.582
G1 F1980 X124.904 Y105.416 E174.43918
G0 F3630 X125.654 Y105.416
G1 F1980 X122.82 Y102.582 E175.28885
G0 F3630 X123.569 Y102.582
G1 F1980 X126.403 Y105.416 E176.13852
G0 F3630 X127.153 Y105.416
G1 F1980 X124.319 Y102.582 E176.9882
G0 F3630 X125.068 Y102.582
G1 F1980 X127.902 Y105.416 E177.83787
G0 F3630 X128.652 Y105.416
G1 F1980 X125.818 Y102.582 E178.68754
G0 F3630 X126.567 Y102.582
G1 F1980 X129.401 Y105.416 E179.53721
G0 F3630 X129.416 Y104.681
G1 F1980 X127.317 Y102.582 E180.16652
G0 F3630 X128.066 Y102.582
G1 F1980 X129.416 Y103.931 E180.57111
G0 F3630 X129.416 Y103.182
G1 F1980 X128.816 Y102.582 E180.751
G10
;MESH:????33.044.702 - ???????????? ???????????????????????? ?????????????? ?????? Y.stl
G0 F3630 X130.691 Y106.691
G0 X130.691 Y108.321
G0 X149.186 Y127.179
G0 X149.186 Y128.807
G0 X151.658 Y130.183
;TYPE:WALL-INNER
G11
G1 F1980 X151.102 Y129.326 E180.96757
G1 X152.135 Y129.325 E181.18657
G1 X152.135 Y130.183 E181.36846
G1 X152.135 Y131.332 E181.61205
G1 X152.135 Y164.679 E188.68162
G1 X152.135 Y164.701 E188.68628
G1 X152.022 Y164.814 E188.72016
G1 X151.811 Y165.025 E188.78342
G1 X151.885 Y164.679 E188.80405
G1 X151.885 Y131.332 E192.13875
G1 X151.658 Y130.183 E192.31015
G0 F3630 X151.394 Y164.627
G0 X151.162 Y165.706
G0 X150.508 Y166.654
G0 X149.543 Y167.275
G0 X148.413 Y167.482
G0 X147.292 Y167.24
G0 X146.347 Y166.588
G0 X145.726 Y165.628
G0 X145.526 Y164.619
G0 X145.527 Y132.716
G0 X125.879 Y139.627
G0 X124.287 Y141.5
G1 F1980 X124.647 Y142.835 E192.60328
G1 X125.623 Y143.814 E192.89634
G1 X126.96 Y144.173 E193.18983
G1 X128.295 Y143.814 E193.4829
G1 X129.274 Y142.835 E193.77642
G1 X129.633 Y141.5 E194.0695
G1 X129.274 Y140.165 E194.36257
G1 X128.295 Y139.186 E194.65609
G1 X126.96 Y138.827 E194.94916
G1 X125.623 Y139.186 E195.24265
G1 X124.647 Y140.165 E195.53571
G1 X124.287 Y141.5 E195.82884
G0 F3630 X124.287 Y149.5
G1 F1980 X124.647 Y150.835 E196.12197
G1 X125.623 Y151.814 E196.41504
G1 X126.96 Y152.173 E196.70853
G1 X128.295 Y151.814 E197.0016
G1 X129.274 Y150.835 E197.29512
G1 X129.633 Y149.5 E197.58819
G1 X129.274 Y148.165 E197.88127
G1 X128.295 Y147.186 E198.17478
G1 X126.96 Y146.827 E198.46786
G1 X125.623 Y147.186 E198.76134
G1 X124.647 Y148.165 E199.05441
G1 X124.287 Y149.5 E199.34754
G0 F3630 X115.706 Y158.493
G1 F1980 X116.525 Y157.364 E199.64323
G1 X116.815 Y156 E199.93886
G1 X116.525 Y154.636 E200.2345
G1 X115.706 Y153.507 E200.53019
G1 X114.496 Y152.81 E200.82622
G1 X113.109 Y152.664 E201.12189
G1 X111.783 Y153.095 E201.41748
G1 X110.747 Y154.029 E201.71319
G1 X110.179 Y155.302 E202.00871
G1 X110.179 Y156.698 E202.30467
G1 X110.747 Y157.971 E202.60019
G1 X111.783 Y158.905 E202.8959
G1 X113.109 Y159.336 E203.19149
G1 X114.496 Y159.19 E203.48716
G1 X115.706 Y158.493 E203.78319
G0 F3630 X113.161 Y158.835
G0 X112.035 Y158.47
G0 X98.879 Y151.373
G0 X97.287 Y149.5
G1 F1980 X97.647 Y150.835 E204.07632
G1 X98.623 Y151.814 E204.36939
G1 X99.96 Y152.173 E204.66287
G1 X101.295 Y151.814 E204.95595
G1 X102.274 Y150.835 E205.24947
G1 X102.633 Y149.5 E205.54254
G1 X102.274 Y148.165 E205.83561
G1 X101.295 Y147.186 E206.12913
G1 X99.96 Y146.827 E206.42221
G1 X98.623 Y147.186 E206.71569
G1 X97.647 Y148.165 E207.00876
G1 X97.287 Y149.5 E207.30189
G0 F3630 X97.287 Y141.5
G1 F1980 X97.647 Y142.835 E207.59502
G1 X98.623 Y143.814 E207.88809
G1 X99.96 Y144.173 E208.18157
G1 X101.295 Y143.814 E208.47464
G1 X102.274 Y142.835 E208.76816
G1 X102.633 Y141.5 E209.06124
G1 X102.274 Y140.165 E209.35431
G1 X101.295 Y139.186 E209.64783
G1 X99.96 Y138.827 E209.9409
G1 X98.623 Y139.186 E210.23439
G1 X97.647 Y140.165 E210.52745
G1 X97.287 Y141.5 E210.82058
G0 F3630 X80.508 Y166.654
G0 X79.543 Y167.275
G0 X78.413 Y167.482
G0 X77.292 Y167.24
G0 X76.347 Y166.588
G0 X75.726 Y165.628
G0 X75.299 Y130.094
G1 F1980 X75.035 Y131.32 E211.08645
G1 X75.035 Y164.669 E218.15644
G1 X75.105 Y165.021 E218.23253
G1 X74.895 Y164.811 E218.24132
G1 X74.785 Y164.701 E218.26483
G1 X74.785 Y164.669
G1 X74.785 Y131.32 E221.59973
G1 X74.785 Y130.094 E221.78665
G1 X74.785 Y130.069 E221.79195
G1 X74.785 Y129.325 E221.94968
G1 X75.325 Y129.325 E222.06416
G1 X75.829 Y129.325 E222.171
G1 X75.543 Y129.74 E222.23058
G1 X75.313 Y130.074 E222.31655
G1 X75.299 Y130.094 E222.32165
G0 F3630 X75.526 Y164.619
G0 X75.726 Y165.628
G0 X76.347 Y166.588
G0 X77.292 Y167.24
G0 X78.413 Y167.482
G0 X80.857 Y167.014
G1 F1980 X81.622 Y165.906 E222.60709
G1 X81.885 Y164.679 E222.87313
G1 X81.885 Y131.332 E229.94269
G1 X81.658 Y130.183 E230.19099
G1 X81.367 Y129.734 E230.30442
G1 X81.103 Y129.326 E230.40744
G1 X81.588 Y129.326 E230.46511
G1 X81.59 Y129.326 E230.46553
G1 X145.325 Y129.325 E243.97735
G1 X145.829 Y129.325 E244.0842
G1 X145.543 Y129.74 E244.14377
G1 X145.299 Y130.094 E244.23492
G1 X145.035 Y131.32 E244.50079
G1 X145.035 Y164.669 E251.57078
G1 X145.263 Y165.817 E251.8189
G1 X145.986 Y166.936 E252.10134
G1 X147.094 Y167.7 E252.38667
G1 X148.214 Y167.942 E252.62959
G1 X148.405 Y167.983 E252.671
G1 X148.953 Y167.883 E252.78909
G1 X148.63 Y168.206 E252.81379
G1 X148.492 Y168.344 E252.84782
G1 X147.161 Y169.675 E253.24687
G1 X79.759 Y169.675 E267.53609
G1 X78.431 Y168.347 E267.93425
G1 X78.236 Y168.152 E267.99271
G1 X77.974 Y167.89 E268.07126
G1 X78.405 Y167.983 E268.10073
G1 X78.677 Y167.934 E268.14507
G1 X79.727 Y167.741 E268.3714
G1 X80.857 Y167.014 E268.65626
G0 F3630 X97.737 Y149.5
G0 X97.836 Y149.5
G1 F1980 X98.122 Y150.561 E268.88922
G1 X98.898 Y151.339 E269.12217
G1 X99.96 Y151.624 E269.35528
G1 X101.021 Y151.339 E269.58819
G1 X101.799 Y150.561 E269.82144
G1 X102.084 Y149.5 E270.05435
G1 X101.799 Y148.439 E270.28725
G1 X101.021 Y147.661 E270.52051
G1 X99.96 Y147.376 E270.75341
G1 X98.898 Y147.661 E270.98652
G1 X98.122 Y148.439 E271.21948
G1 X97.836 Y149.5 E271.45244
G0 F3630 X97.737 Y149.5
G0 X97.737 Y141.5
G0 X97.836 Y141.5
G1 F1980 X98.122 Y142.561 E271.6854
G1 X98.898 Y143.339 E271.91836
G1 X99.96 Y143.624 E272.15147
G1 X101.021 Y143.339 E272.38437
G1 X101.799 Y142.561 E272.61763
G1 X102.084 Y141.5 E272.85053
G1 X101.799 Y140.439 E273.08344
G1 X101.021 Y139.661 E273.31669
G1 X99.96 Y139.376 E273.5496
G1 X98.898 Y139.661 E273.78271
G1 X98.122 Y140.439 E274.01566
G1 X97.836 Y141.5 E274.24862
G0 F3630 X97.737 Y141.5
G0 X98.089 Y142.581
G0 X111.153 Y157.676
G0 X112.005 Y158.522
G0 X112.054 Y158.436
G1 F1980 X113.166 Y158.797 E274.49648
G1 X114.329 Y158.675 E274.74439
G1 X115.343 Y158.09 E274.99257
G1 X116.03 Y157.144 E275.24042
G1 X116.273 Y156 E275.48836
G1 X116.03 Y154.856 E275.7363
G1 X115.343 Y153.91 E275.98416
G1 X114.329 Y153.325 E276.23234
G1 X113.166 Y153.203 E276.48025
G1 X112.054 Y153.564 E276.7281
G1 X111.185 Y154.347 E276.97608
G1 X110.709 Y155.415 E277.22397
G1 X110.709 Y156.585 E277.47201
G1 X111.185 Y157.653 E277.71989
G1 X112.054 Y158.436 E277.96787
G0 F3630 X112.005 Y158.522
G0 X113.161 Y158.835
G0 X114.342 Y158.713
G0 X115.266 Y158.178
G0 X124.737 Y149.5
G0 X124.836 Y149.5
G1 F1980 X125.122 Y150.561 E278.20084
G1 X125.898 Y151.339 E278.43379
G1 X126.96 Y151.624 E278.6669
G1 X128.021 Y151.339 E278.89981
G1 X128.799 Y150.561 E279.13306
G1 X129.084 Y149.5 E279.36597
G1 X128.799 Y148.439 E279.59887
G1 X128.021 Y147.661 E279.83213
G1 X126.96 Y147.376 E280.06503
G1 X125.898 Y147.661 E280.29814
G1 X125.122 Y148.439 E280.5311
G1 X124.836 Y149.5 E280.76406
G0 F3630 X124.737 Y149.5
G0 X124.737 Y141.5
G0 X124.836 Y141.5
G1 F1980 X125.122 Y142.561 E280.99702
G1 X125.898 Y143.339 E281.22997
G1 X126.96 Y143.624 E281.46308
G1 X128.021 Y143.339 E281.69599
G1 X128.799 Y142.561 E281.92924
G1 X129.084 Y141.5 E282.16215
G1 X128.799 Y140.439 E282.39506
G1 X128.021 Y139.661 E282.62831
G1 X126.96 Y139.376 E282.86122
G1 X125.898 Y139.661 E283.09433
G1 X125.122 Y140.439 E283.32728
G1 X124.836 Y141.5 E283.56024
G0 F3630 X124.737 Y141.5
G0 X79.543 Y167.275
G0 X78.413 Y167.482
G0 X77.292 Y167.24
G0 X76.347 Y166.588
G0 X75.726 Y165.628
G0 X75.526 Y164.619
G0 X75.526 Y131.372
G0 X75.735 Y130.4
G0 X76.386 Y129.289
G0 X76.439 Y129.374
G1 F1980 X75.795 Y130.308 E283.80076
G1 X75.565 Y131.376 E284.03236
G1 X75.565 Y164.617 E291.07945
G1 X75.763 Y165.614 E291.29495
G1 X75.888 Y165.807 E291.34369
G1 X76.374 Y166.56 E291.53369
G1 X77.237 Y167.155 E291.75592
G1 X77.308 Y167.204 E291.77421
G1 X78.414 Y167.443 E292.01409
G1 X79.528 Y167.239 E292.25419
G1 X80.481 Y166.626 E292.49441
G1 X81.126 Y165.692 E292.73504
G1 X81.355 Y164.623 E292.96681
G1 X81.355 Y131.384 E300.01348
