;FLAVOR:UltiGCode
;TIME:18483
;MATERIAL:39861
;MATERIAL2:0
;NOZZLE_DIAMETER:0.6
;MINX:2.235
;MINY:50.385
;MINZ:0.4
;MAXX:149.627
;MAXY:176.588
;MAXZ:13
;Generated with Cura_SteamEngine 4.1.0
M82 ;absolute extrusion mode

G92 E0
G92 E0
G10
;LAYER_COUNT:85
;LAYER:0
M107
G0 F3630 X37.222 Y82.091 Z0.4
;TYPE:SKIRT
G11
G1 F1980 X39.656 Y80.945 E0.57034
G1 X42.129 Y79.695 E1.15779
G1 X44.521 Y78.4 E1.73444
G1 X46.879 Y77.035 E2.31205
G1 X49.213 Y75.593 E2.89368
G1 X51.488 Y74.1 E3.47056
G1 X53.748 Y72.52 E4.05516
G1 X55.932 Y70.902 E4.63138
G1 X58.11 Y69.192 E5.21843
G1 X60.199 Y67.453 E5.79467
G1 X62.231 Y65.659 E6.36932
G1 X64.262 Y63.765 E6.95806
G1 X66.184 Y61.866 E7.53086
G1 X68.074 Y59.891 E8.11039
G1 X69.931 Y57.837 E8.69742
G1 X71.7 Y55.766 E9.27484
G1 X73.416 Y53.638 E9.85438
G1 X74.91 Y51.679 E10.37668
G1 X75.25 Y51.299 E10.48478
G1 X75.646 Y50.976 E10.59312
G1 X76.087 Y50.718 E10.70143
G1 X76.563 Y50.533 E10.8097
G1 X77.062 Y50.424 E10.91798
G1 X77.415 Y50.395 E10.99307
G1 X77.739 Y50.386 E11.06178
G1 X77.83 Y50.385 E11.08108
G1 X144.84 Y50.385 E25.2872
G1 X145.538 Y50.395 E25.43519
G1 X146.046 Y50.443 E25.54336
G1 X146.541 Y50.569 E25.65165
G1 X147.01 Y50.77 E25.75982
G1 X147.442 Y51.042 E25.86805
G1 X147.827 Y51.379 E25.97652
G1 X148.154 Y51.771 E26.08474
G1 X148.416 Y52.209 E26.19294
G1 X148.606 Y52.683 E26.3012
G1 X148.721 Y53.181 E26.40956
G1 X148.755 Y53.568 E26.49192
G1 X148.764 Y53.888 E26.55979
G1 X148.765 Y53.98 E26.57929
G1 X148.765 Y63.208 E28.53563
G1 X148.805 Y66.002 E29.12802
G1 X148.92 Y68.715 E29.70369
G1 X149.114 Y71.461 E30.28729
G1 X149.382 Y74.164 E30.86314
G1 X149.545 Y75.461 E31.14026
G1 X149.551 Y75.511 E31.15094
G1 X149.587 Y75.839 E31.22089
G1 X149.605 Y76.131 E31.28291
G1 X149.626 Y77.208 E31.51128
G1 X149.627 Y77.318 E31.5346
G1 X149.617 Y78.023 E31.68408
G1 X149.591 Y78.387 E31.76144
G1 X149.453 Y79.478 E31.99458
G1 X149.144 Y82.202 E32.57577
G1 X148.913 Y84.915 E33.15301
G1 X148.752 Y87.781 E33.76156
G1 X148.671 Y90.544 E34.34756
G1 X148.667 Y93.254 E34.92208
G1 X148.681 Y94.107 E35.10295
G1 X148.681 Y103.45 E37.08366
G1 X148.721 Y106.246 E37.67647
G1 X148.836 Y108.957 E38.25172
G1 X149.03 Y111.704 E38.83554
G1 X149.298 Y114.406 E39.41117
G1 X149.461 Y115.703 E39.6883
G1 X149.467 Y115.753 E39.69897
G1 X149.503 Y116.081 E39.76893
G1 X149.521 Y116.373 E39.83095
G1 X149.542 Y117.45 E40.05932
G1 X149.543 Y117.56 E40.08264
G1 X149.533 Y118.265 E40.23211
G1 X149.508 Y118.622 E40.30798
G1 X149.454 Y119.056 E40.4007
G1 X149.144 Y121.789 E40.98381
G1 X148.915 Y124.492 E41.5589
G1 X148.759 Y127.244 E42.14326
G1 X148.682 Y129.989 E42.72543
G1 X148.682 Y132.735 E43.30758
G1 X148.713 Y134.163 E43.61039
G1 X148.714 Y134.163 E43.6106
G1 X148.764 Y135.872 E43.97306
G1 X148.765 Y135.967 E43.99321
G1 X148.765 Y145.208 E45.9523
G1 X148.805 Y148.004 E46.54511
G1 X148.92 Y150.715 E47.12036
G1 X149.114 Y153.462 E47.70417
G1 X149.382 Y156.164 E48.27981
G1 X149.545 Y157.461 E48.55693
G1 X149.551 Y157.511 E48.56761
G1 X149.587 Y157.839 E48.63756
G1 X149.605 Y158.131 E48.69959
G1 X149.626 Y159.208 E48.92795
G1 X149.627 Y159.318 E48.95127
G1 X149.617 Y160.023 E49.10075
G1 X149.591 Y160.387 E49.17811
G1 X149.453 Y161.478 E49.41125
G1 X149.144 Y164.202 E49.99244
G1 X148.913 Y166.911 E50.56883
G1 X148.755 Y169.7 E51.16105
G1 X148.718 Y170.574 E51.3465
G1 X148.657 Y171.081 E51.45476
G1 X148.517 Y171.572 E51.563
G1 X148.302 Y172.036 E51.67142
G1 X147.912 Y172.587 E51.81453
G1 X147.771 Y172.748 E51.8599
G1 X147.406 Y173.105 E51.96814
G1 X146.989 Y173.4 E52.07643
G1 X146.532 Y173.627 E52.18461
G1 X146.044 Y173.78 E52.29303
G1 X145.389 Y173.861 E52.43295
G1 X144.279 Y173.886 E52.66833
G1 X144.255 Y173.887 E52.67342
G1 X142.128 Y173.92 E53.1244
G1 X139.416 Y174.035 E53.69986
G1 X136.677 Y174.229 E54.28198
G1 X136.255 Y174.271 E54.37189
G1 X136.212 Y174.275 E54.38104
G1 X134.95 Y174.384 E54.64958
G1 X134.767 Y174.395 E54.68845
G1 X134.434 Y174.405 E54.75907
G1 X134.336 Y174.406 E54.77985
G1 X106.47 Y174.406 E60.68744
G1 X103.676 Y174.446 E61.27983
G1 X100.963 Y174.561 E61.85551
G1 X98.216 Y174.755 E62.43932
G1 X95.518 Y175.023 E63.01411
G1 X92.764 Y175.375 E63.60271
G1 X90.109 Y175.793 E64.1725
G1 X86.706 Y176.437 E64.90674
G1 X86.289 Y176.524 E64.99705
G1 X85.783 Y176.588 E65.10518
G1 X85.272 Y176.573 E65.21356
G1 X84.77 Y176.478 E65.32187
G1 X84.289 Y176.306 E65.43016
G1 X83.841 Y176.062 E65.53831
G1 X83.416 Y175.732 E65.65238
G1 X82.742 Y175.113 E65.84639
G1 X82.66 Y175.035 E65.87038
G1 X82.016 Y174.401 E66.06197
G1 X81.983 Y174.368 E66.07186
G1 X81.521 Y173.9 E66.21128
G1 X81.233 Y173.565 E66.30494
G1 X80.972 Y173.217 E66.39716
G1 X79.31 Y171.04 E66.9778
G1 X77.564 Y168.88 E67.56662
G1 X75.823 Y166.848 E68.13389
G1 X73.969 Y164.804 E68.71892
G1 X72.051 Y162.806 E69.30608
G1 X70.114 Y160.899 E69.88234
G1 X68.125 Y159.049 E70.45821
G1 X66.063 Y157.238 E71.04002
G1 X63.952 Y155.486 E71.6216
G1 X61.786 Y153.79 E72.20481
G1 X59.587 Y152.166 E72.78435
G1 X57.36 Y150.617 E73.35945
G1 X55.07 Y149.117 E73.93981
G1 X52.747 Y147.69 E74.51778
G1 X50.343 Y146.304 E75.10606
G1 X47.947 Y145.012 E75.68316
G1 X45.528 Y143.794 E76.25733
G1 X43.022 Y142.62 E76.84401
G1 X40.521 Y141.534 E77.42205
G1 X37.999 Y140.522 E77.99815
G1 X35.405 Y139.566 E78.58424
G1 X32.814 Y138.693 E79.16387
G1 X30.212 Y137.897 E79.74073
G1 X27.564 Y137.169 E80.32294
G1 X24.883 Y136.512 E80.90813
G1 X22.243 Y135.946 E81.48052
G1 X19.561 Y135.448 E82.05883
G1 X16.829 Y135.021 E82.64504
G1 X13.22 Y134.576 E83.41594
G1 X12.72 Y134.475 E83.52409
G1 X12.242 Y134.296 E83.63229
G1 X11.797 Y134.045 E83.74061
G1 X11.385 Y133.716 E83.85238
G1 X10.716 Y133.088 E84.04691
G1 X10.66 Y133.035 E84.06325
G1 X10.016 Y132.401 E84.25484
G1 X9.986 Y132.37 E84.26399
G1 X9.524 Y131.903 E84.40325
G1 X9.194 Y131.513 E84.51156
G1 X8.929 Y131.077 E84.61972
G1 X8.741 Y130.619 E84.72468
G1 X7.918 Y128.094 E85.2877
G1 X6.987 Y125.467 E85.87856
G1 X6.017 Y122.959 E86.44864
G1 X4.946 Y120.407 E87.03538
G1 X3.822 Y117.925 E87.613
G1 X2.946 Y116.111 E88.04006
G1 X2.585 Y115.384 E88.21214
G1 X2.395 Y114.91 E88.3204
G1 X2.28 Y114.412 E88.42876
G1 X2.246 Y113.992 E88.51809
G1 X2.236 Y113.434 E88.6364
G1 X2.235 Y113.375 E88.64891
G1 X2.235 Y94.305 E92.69175
G1 X2.244 Y93.616 E92.83783
G1 X2.291 Y93.108 E92.94599
G1 X2.416 Y92.613 E93.05422
G1 X2.617 Y92.143 E93.16259
G1 X2.889 Y91.711 E93.27082
G1 X3.225 Y91.326 E93.37915
G1 X3.616 Y90.998 E93.48735
G1 X4.054 Y90.736 E93.59555
G1 X4.528 Y90.545 E93.70389
G1 X5.225 Y90.406 E93.85456
G1 X5.556 Y90.377 E93.925
G1 X8.32 Y90.099 E94.51393
G1 X11.015 Y89.75 E95.09004
G1 X13.73 Y89.321 E95.67276
G1 X16.397 Y88.821 E96.24801
G1 X19.065 Y88.243 E96.82675
G1 X21.731 Y87.585 E97.4089
G1 X24.376 Y86.853 E97.99072
G1 X27.021 Y86.04 E98.57735
G1 X29.557 Y85.181 E99.14499
G1 X32.16 Y84.216 E99.73352
G1 X34.667 Y83.205 E100.3066
G1 X37.222 Y82.091 E100.8975
G0 F3630 X84.091 Y88.88
;TYPE:SUPPORT
G1 F1980 X85.343 Y88.88 E101.16293
G1 X85.872 Y88.351 E101.32153
G1 X85.872 Y86.293 E101.75782
G1 X85.888 Y86.287 E101.76145
G1 X88.255 Y88.655 E102.47126
G1 X134.401 Y88.655 E112.25421
G1 X134.401 Y88.876 E112.30106
G1 X90.695 Y88.876 E121.56673
G1 X88.006 Y89.998 E122.18443
G1 X87.581 Y90.241 E122.28822
G1 X85.66 Y91.03 E122.72849
G1 X84.091 Y89.487 E123.19501
G1 X84.091 Y88.88 E123.3237
G0 F3630 X84.8 Y89.092
G1 F1980 X84.8 Y89.886 E123.49202
G0 F3630 X85.017 Y90.1
G1 F1980 X87.366 Y90.1 E123.99001
G0 F3630 X86.92 Y90.284
G1 F1980 X86.92 Y87.62 E124.55478
G0 F3630 X87.281 Y87.98
G1 F1980 X86.084 Y87.98 E124.80854
G0 F3630 X85.86 Y88.664
G1 F1980 X85.86 Y90.719 E125.2442
G0 F3630 X85.484 Y89.04
G1 F1980 X89.751 Y89.04 E126.14881
G0 F3630 X89.04 Y88.867
G1 F1980 X89.04 Y89.337 E126.24845
G0 F3630 X87.98 Y89.78
G1 F1980 X87.98 Y88.681 E126.48144
G0 F3630 X86.222 Y86.92
G1 F1980 X86.084 Y86.92 E126.51069
G10
G0 F3630 X77.267 Y93.11
G0 X76.65 Y106.757
G0 X73.2 Y118.199
G11
G1 F1980 X73.2 Y128.35 E128.6627
G1 X72.377 Y128.35 E128.83718
G1 X72.377 Y119.022 E130.81472
G1 X73.2 Y118.199 E131.06146
G0 F3630 X72.987 Y119.78
G1 F1980 X72.588 Y119.78 E131.14605
G0 F3630 X72.588 Y120.84
G1 F1980 X72.987 Y120.84 E131.23064
G0 F3630 X72.987 Y121.9
G1 F1980 X72.588 Y121.9 E131.31523
G0 F3630 X72.588 Y122.96
G1 F1980 X72.987 Y122.96 E131.39981
G0 F3630 X72.987 Y124.02
G1 F1980 X72.588 Y124.02 E131.4844
G0 F3630 X72.588 Y125.08
G1 F1980 X72.987 Y125.08 E131.56899
G0 F3630 X72.987 Y126.14
G1 F1980 X72.588 Y126.14 E131.65358
G0 F3630 X72.588 Y127.2
G1 F1980 X72.987 Y127.2 E131.73817
G0 F3630 X84.007 Y129.122
G1 F1980 X85.258 Y129.122 E132.00338
G1 X85.787 Y128.593 E132.16198
G1 X85.787 Y126.534 E132.59849
G1 X85.803 Y126.528 E132.60211
G1 X88.171 Y128.897 E133.31222
G1 X134.317 Y128.897 E143.09517
G1 X134.317 Y129.118 E143.14202
G1 X90.625 Y129.118 E152.40473
G1 X89.04 Y129.781 E152.76896
G1 X87.599 Y130.371 E153.09907
G1 X87.478 Y130.492 E153.13534
G1 X85.573 Y131.273 E153.57183
G1 X84.007 Y129.732 E154.0376
G1 X84.007 Y129.122 E154.16692
G0 F3630 X84.8 Y129.334
G1 F1980 X84.8 Y130.214 E154.35348
G0 F3630 X84.967 Y130.38
G1 F1980 X87.191 Y130.38 E154.82497
G0 F3630 X86.92 Y130.492
G1 F1980 X86.92 Y127.946 E155.36472
G0 F3630 X87.234 Y128.26
G1 F1980 X85.998 Y128.26 E155.62675
G0 F3630 X85.86 Y128.821
G1 F1980 X85.86 Y130.926 E156.07301
G0 F3630 X85.36 Y129.32
G1 F1980 X89.592 Y129.32 E156.9702
G0 F3630 X89.04 Y129.109
G1 F1980 X89.04 Y129.552 E157.06411
G0 F3630 X87.98 Y129.986
G1 F1980 X87.98 Y129.007 E157.27166
G0 F3630 X86.175 Y127.2
G1 F1980 X85.998 Y127.2 E157.30918
G10
G0 F3630 X77.351 Y134.868
G0 X76.715 Y156.025
G0 X85.888 Y168.287
G11
G1 F1980 X88.255 Y170.655 E158.01899
G1 X134.401 Y170.655 E167.80194
G1 X134.401 Y170.876 E167.8488
G1 X90.709 Y170.876 E177.1115
G1 X89.124 Y171.539 E177.47573
G1 X87.683 Y172.129 E177.80584
G1 X87.562 Y172.25 E177.84212
G1 X85.657 Y173.031 E178.2786
G1 X84.091 Y171.49 E178.74437
G1 X84.091 Y170.88 E178.87369
G1 X85.343 Y170.88 E179.13912
G1 X85.872 Y170.351 E179.29772
G1 X85.872 Y168.293 E179.73402
G1 X85.888 Y168.287 E179.73764
G0 F3630 X86.083 Y169.6
G1 F1980 X86.9 Y169.6 E179.91084
G0 F3630 X86.92 Y169.62
G1 F1980 X86.92 Y172.285 E180.47582
G0 F3630 X85.86 Y172.718
G1 F1980 X85.86 Y170.664 E180.91127
G0 F3630 X85.863 Y170.66
G1 F1980 X87.959 Y170.66 E181.35562
G0 F3630 X87.98 Y170.681
G1 F1980 X87.98 Y171.779 E181.5884
G0 F3630 X88.121 Y171.72
G1 F1980 X84.626 Y171.72 E182.32934
G0 F3630 X84.8 Y171.889
G1 F1980 X84.8 Y171.092 E182.4983
G0 F3630 X89.04 Y170.867
G1 F1980 X89.04 Y171.345 E182.59964
G0 F3630 X144.377 Y170.35
G1 F1980 X144.377 Y161.023 E184.57696
G1 X144.608 Y160.793 E184.64607
G1 X144.849 Y160.203 E184.78118
G1 X144.833 Y158.864 E185.06507
G1 X145.127 Y158.275 E185.20463
G1 X146.097 Y158.504 E185.41592
G1 X146.097 Y159.746 E185.67923
G1 X145.729 Y159.746 E185.75724
G1 X145.2 Y160.275 E185.91584
G1 X145.2 Y170.35 E188.05174
G1 X144.377 Y170.35 E188.22622
G0 F3630 X144.589 Y169.6
G1 F1980 X144.988 Y169.6 E188.31081
G0 F3630 X144.988 Y168.54
G1 F1980 X144.589 Y168.54 E188.3954
G0 F3630 X144.589 Y167.48
G1 F1980 X144.988 Y167.48 E188.47998
G0 F3630 X144.988 Y166.42
G1 F1980 X144.589 Y166.42 E188.56457
G0 F3630 X144.589 Y165.36
G1 F1980 X144.988 Y165.36 E188.64916
G0 F3630 X144.988 Y164.3
G1 F1980 X144.589 Y164.3 E188.73375
G0 F3630 X144.589 Y163.24
G1 F1980 X144.988 Y163.24 E188.81834
G0 F3630 X144.988 Y162.18
G1 F1980 X144.589 Y162.18 E188.90292
G0 F3630 X144.589 Y161.12
G1 F1980 X144.988 Y161.12 E188.98751
G0 F3630 X145.22 Y159.955
G1 F1980 X145.22 Y158.562 E189.28283
G0 F3630 X145.047 Y159
G1 F1980 X145.885 Y159 E189.46048
G10
G0 F3630 X146.286 Y156.021
G0 X146.113 Y134.876
G0 X145.116 Y128.592
G11
G1 F1980 X144.293 Y128.592 E189.63496
G1 X144.293 Y119.265 E191.61228
G1 X144.524 Y119.035 E191.68139
G1 X144.765 Y118.445 E191.8165
G1 X144.749 Y117.106 E192.10039
G1 X145.043 Y116.517 E192.23995
G1 X146.013 Y116.746 E192.45124
G1 X146.013 Y117.988 E192.71455
G1 X145.645 Y117.988 E192.79256
G1 X145.116 Y118.517 E192.95117
G1 X145.116 Y128.592 E195.08707
G0 F3630 X144.904 Y128.26
G1 F1980 X144.505 Y128.26 E195.17165
G0 F3630 X144.505 Y127.2
G1 F1980 X144.904 Y127.2 E195.25624
G0 F3630 X144.904 Y126.14
G1 F1980 X144.505 Y126.14 E195.34083
G0 F3630 X144.505 Y125.08
G1 F1980 X144.904 Y125.08 E195.42542
G0 F3630 X144.904 Y124.02
G1 F1980 X144.505 Y124.02 E195.51001
G0 F3630 X144.505 Y122.96
G1 F1980 X144.904 Y122.96 E195.59459
G0 F3630 X144.904 Y121.9
G1 F1980 X144.505 Y121.9 E195.67918
G0 F3630 X144.505 Y120.84
G1 F1980 X144.904 Y120.84 E195.76377
G0 F3630 X144.904 Y119.78
G1 F1980 X144.505 Y119.78 E195.84836
G0 F3630 X145.22 Y118.113
G1 F1980 X145.22 Y116.777 E196.13159
G0 F3630 X144.967 Y117.66
G1 F1980 X145.801 Y117.66 E196.3084
G10
G0 F3630 X146.202 Y114.263
G0 X146.029 Y93.118
G0 X145.2 Y88.35
G11
G1 F1980 X144.377 Y88.35 E196.48287
G1 X144.377 Y79.023 E198.4602
G1 X144.608 Y78.793 E198.5293
G1 X144.849 Y78.203 E198.66442
G1 X144.833 Y76.864 E198.94831
G1 X145.127 Y76.275 E199.08786
G1 X146.097 Y76.504 E199.29916
G1 X146.097 Y77.746 E199.56246
G1 X145.729 Y77.746 E199.64048
G1 X145.2 Y78.275 E199.79908
G1 X145.2 Y88.35 E201.93498
G0 F3630 X144.988 Y87.98
G1 F1980 X144.589 Y87.98 E202.01957
G0 F3630 X144.589 Y86.92
G1 F1980 X144.988 Y86.92 E202.10415
G0 F3630 X144.988 Y85.86
G1 F1980 X144.589 Y85.86 E202.18874
G0 F3630 X144.589 Y84.8
G1 F1980 X144.988 Y84.8 E202.27333
G0 F3630 X144.988 Y83.74
G1 F1980 X144.589 Y83.74 E202.35792
G0 F3630 X144.589 Y82.68
G1 F1980 X144.988 Y82.68 E202.44251
G0 F3630 X144.988 Y81.62
G1 F1980 X144.589 Y81.62 E202.52709
G0 F3630 X144.589 Y80.56
G1 F1980 X144.988 Y80.56 E202.61168
G0 F3630 X144.988 Y79.5
G1 F1980 X144.589 Y79.5 E202.69627
G0 F3630 X145.22 Y77.955
G1 F1980 X145.22 Y76.562 E202.99159
G0 F3630 X145.051 Y77.38
G1 F1980 X145.885 Y77.38 E203.16839
G10
G0 F3630 X134.073 Y86.471
G0 X120.248 Y93.125
G0 X77.267 Y93.11
G0 X76.632 Y112.214
G0 X62.401 Y128.655
G11
G1 F1980 X62.401 Y128.876 E203.21525
G1 X18.709 Y128.876 E212.47795
G1 X17.124 Y129.539 E212.84218
G1 X15.683 Y130.129 E213.17229
G1 X15.562 Y130.25 E213.20857
G1 X13.657 Y131.031 E213.64505
G1 X12.091 Y129.49 E214.11082
G1 X12.091 Y128.88 E214.24014
G1 X13.343 Y128.88 E214.50557
G1 X13.872 Y128.351 E214.66417
G1 X13.872 Y126.293 E215.10047
G1 X13.888 Y126.287 E215.10409
G1 X16.255 Y128.655 E215.8139
G1 X62.401 Y128.655 E225.59685
G0 F3630 X17.098 Y129.32
G1 F1980 X12.302 Y129.32 E226.6136
G0 F3630 X12.72 Y129.092
G1 F1980 X12.72 Y129.811 E226.76603
G0 F3630 X13.297 Y130.38
G1 F1980 X14.684 Y130.38 E227.06007
G0 F3630 X14.84 Y130.317
G1 F1980 X14.84 Y127.54 E227.6488
G0 F3630 X14.501 Y127.2
G1 F1980 X14.083 Y127.2 E227.73741
G0 F3630 X14.083 Y128.26
G1 F1980 X15.559 Y128.26 E228.05032
G0 F3630 X15.9 Y128.601
G1 F1980 X15.9 Y129.812 E228.30706
G0 F3630 X16.96 Y129.378
G1 F1980 X16.96 Y128.867 E228.41539
G0 F3630 X13.78 Y128.744
G1 F1980 X13.78 Y130.751 E228.84087
G10
;MESH:????33.044.304 - ?????????????????? ??????????.stl(3)
G0 F3630 X16.623 Y126.168
G0 X17.753 Y125.037
G0 X24.175 Y114.975
;TYPE:WALL-INNER
G11
G1 F1980 X54.825 Y114.975 E235.33867
G1 X54.825 Y98.325 E238.86847
G1 X24.175 Y98.325 E245.36627
G1 X24.175 Y114.975 E248.89607
G0 F3630 X12.882 Y106.842
G0 X12.096 Y106.056
G0 X10.758 Y103.65
G1 F1980 X10.976 Y105.023 E249.19079
G1 X11.606 Y106.26 E249.48509
G1 X12.59 Y107.244 E249.78011
G1 X13.827 Y107.874 E250.0744
G1 X15.2 Y108.092 E250.36913
G1 X16.573 Y107.874 E250.66385
G1 X17.81 Y107.244 E250.95814
G1 X18.794 Y106.26 E251.25316
G1 X19.424 Y105.023 E251.54746
